X: 21309
T: Kenmare Bay
R: hornpipe
M: 4/4
K: Gmajor
|:DC|B,D~D2 B,DG,B,|DG,B,D GBdB|ceAG FADF|(3ABA (3GFE .Dd^cd|
BGEG DG,B,D|~G,2B,D GBdB|ceAG FADF|(3ABA GF G2:|
|:Bc|dgba gdBd|Bc{d}cA (3Bcd fa|gfde fgag|(3fga d^c d=cBc|
dgba gdBd|Bc{d}cA (3Bcd fa|gfdc ABcA|(3BcB GF G2:|

